images/sponsors/Sparx Logo.svg

<?xml version="1.0" encoding="UTF-8"?>
<svg xmlns="http://www.w3.org/2000/svg" xmlns:xlink="http://www.w3.org/1999/xlink" width="546.5pt" height="161.5pt" viewBox="0 0 546.5 161.5" version="1.1">
<defs>
<clipPath id="clip1">
  <path d="M 0 18 L 546.5 18 L 546.5 143 L 0 143 Z M 0 18 "/>
</clipPath>
</defs>
<g id="surface1">
<path style=" stroke:none;fill-rule:evenodd;fill:rgb(90.234375%,24.31488%,5.099487%);fill-opacity:1;" d="M 0.0859375 161.496094 L 546.585938 161.496094 L 546.585938 -0.00390625 L 0.0859375 -0.00390625 Z M 0.0859375 161.496094 "/>
<g clip-path="url(#clip1)" clip-rule="nonzero">
<path style=" stroke:none;fill-rule:evenodd;fill:rgb(0%,0.784302%,0%);fill-opacity:1;" d="M 0.0859375 142.496094 L 546.585938 142.496094 L 546.585938 18.996094 L 0.0859375 18.996094 Z M 0.0859375 142.496094 "/>
</g>
<path style=" stroke:none;fill-rule:evenodd;fill:rgb(100%,100%,100%);fill-opacity:1;" d="M 147.222656 46.222656 L 139.414063 60.457031 C 138.40625 58.960938 137.167969 58.019531 135.734375 57.574219 C 134.289063 57.152344 131.472656 56.941406 127.300781 56.941406 L 102.414063 56.941406 C 99.972656 56.980469 98.523438 57.078125 98.105469 57.230469 C 97.042969 57.59375 96.078125 58.34375 95.246094 59.457031 C 94.441406 60.535156 94.253906 61.246094 94.664063 61.589844 C 95.058594 61.957031 96.285156 62.128906 98.292969 62.128906 L 121.273438 62.128906 C 133.742188 61.574219 135.722656 66.855469 127.207031 77.980469 L 121.128906 86.105469 C 116.632813 92.121094 111.167969 96.617188 104.695313 99.613281 C 101.730469 100.976563 99.050781 101.882813 96.621094 102.34375 C 94.15625 102.824219 90.882813 103.054688 86.773438 103.054688 L 35.601563 103.054688 L 43.816406 88.488281 C 46.058594 90.257813 47.90625 91.332031 49.386719 91.738281 C 50.867188 92.140625 53.679688 92.332031 57.832031 92.332031 L 83.429688 92.332031 C 85.515625 92.332031 87.089844 92.121094 88.167969 91.679688 C 89.214844 91.257813 90.210938 90.410156 91.144531 89.164063 C 92.078125 87.914063 92.375 87.105469 92.050781 86.703125 C 91.746094 86.300781 90.632813 86.105469 88.730469 86.105469 L 62.789063 86.105469 C 59.589844 86.105469 57.335938 85.820313 56.058594 85.222656 C 54.769531 84.648438 54.035156 83.570313 53.835938 81.996094 C 53.375 79.574219 54.921875 75.964844 58.433594 71.160156 L 65.183594 62.128906 C 68.472656 57.730469 72.535156 54.136719 77.378906 51.371094 C 80.890625 49.351563 84.320313 47.988281 87.625 47.277344 C 90.949219 46.566406 95.523438 46.222656 101.355469 46.222656 Z M 102.949219 122.996094 L 149.714844 60.4375 C 152.933594 56.136719 155.046875 53.117188 156.003906 51.429688 C 156.980469 49.71875 157.625 47.988281 157.914063 46.222656 L 185.898438 46.222656 L 183.40625 51.371094 C 186.289063 49.277344 188.78125 47.894531 190.941406 47.21875 C 193.085938 46.546875 196.003906 46.222656 199.6875 46.222656 L 220.527344 46.222656 C 224.878906 46.222656 227.898438 46.683594 229.582031 47.625 C 231.269531 48.566406 232.042969 50.238281 231.921875 52.617188 C 231.882813 53.675781 231.382813 55.210938 230.414063 57.210938 C 229.464844 59.210938 228.367188 61.035156 227.128906 62.6875 L 208.675781 87.375 C 205.039063 92.238281 200.769531 96.078125 195.871094 98.863281 C 190.996094 101.652344 186.078125 103.054688 181.179688 103.054688 L 157.140625 103.054688 C 152.300781 103.054688 150.28125 101.285156 151.089844 97.769531 L 142.886719 108.742188 C 139.640625 113.082031 137.527344 116.097656 136.554688 117.808594 C 135.59375 119.5 134.96875 121.230469 134.660156 122.996094 Z M 162.421875 92.332031 L 169.085938 92.332031 C 171.65625 92.332031 173.785156 91.8125 175.472656 90.777344 C 177.144531 89.757813 179.105469 87.757813 181.289063 84.839844 L 197.085938 63.703125 C 198.496094 61.820313 199.3125 60.648438 199.5625 60.152344 C 199.800781 59.671875 199.90625 59.09375 199.8125 58.460938 C 199.710938 57.863281 199.386719 57.460938 198.855469 57.25 C 198.304688 57.039063 197.324219 56.941406 195.886719 56.941406 L 187.804688 56.941406 C 185.660156 56.941406 183.691406 57.460938 181.925781 58.5 C 180.171875 59.515625 178.449219 61.167969 176.769531 63.417969 L 159.707031 86.242188 C 158.039063 88.46875 157.421875 90.027344 157.828125 90.949219 C 158.230469 91.871094 159.75 92.332031 162.421875 92.332031 Z M 253.027344 46.222656 L 307.601563 46.222656 C 311.710938 46.222656 314.546875 46.488281 316.089844 47.027344 C 317.636719 47.585938 318.757813 48.660156 319.425781 50.3125 C 320.664063 53.5625 319.449219 57.59375 315.761719 62.417969 L 296.027344 88.816406 C 292.796875 93.140625 290.699219 96.136719 289.722656 97.847656 C 288.75 99.558594 288.105469 101.285156 287.816406 103.054688 L 258.714844 103.054688 C 258.996094 101.515625 259.902344 99.519531 261.429688 97.039063 C 259.25 99.113281 256.9375 100.613281 254.460938 101.59375 C 251.988281 102.574219 249.21875 103.054688 246.121094 103.054688 L 224.230469 103.054688 C 220.566406 103.054688 217.921875 102.824219 216.328125 102.382813 C 214.730469 101.917969 213.585938 101.09375 212.898438 99.902344 C 212.238281 98.617188 212.265625 96.980469 212.988281 94.984375 C 213.726563 92.964844 215.210938 90.46875 217.464844 87.453125 L 224.703125 77.769531 C 227.878906 73.523438 231.585938 70.296875 235.878906 68.046875 C 240.171875 65.800781 244.789063 64.664063 249.726563 64.664063 L 277.613281 64.664063 C 280.171875 64.628906 281.914063 64.492188 282.839844 64.28125 C 284.632813 63.78125 286.257813 62.550781 287.738281 60.574219 C 288.789063 59.171875 289.058594 58.210938 288.558594 57.691406 C 288.039063 57.191406 286.546875 56.941406 284.054688 56.941406 L 255.5625 56.941406 C 250.71875 56.863281 245.851563 57.769531 240.996094 59.632813 Z M 276.785156 75.386719 L 262.652344 75.386719 C 260.039063 75.386719 257.851563 75.90625 256.082031 76.941406 C 254.3125 77.980469 252.40625 79.882813 250.335938 82.648438 L 248.484375 85.128906 C 246.445313 87.855469 245.523438 89.738281 245.742188 90.777344 C 245.957031 91.8125 247.371094 92.332031 249.984375 92.332031 L 257.171875 92.332031 C 259.824219 92.332031 262.035156 91.8125 263.804688 90.777344 C 265.570313 89.738281 267.464844 87.855469 269.503906 85.128906 Z M 367.378906 46.222656 L 361.152344 55.578125 C 363.5625 53.328125 365.542969 51.65625 367.128906 50.5625 C 368.71875 49.46875 370.527344 48.566406 372.515625 47.855469 C 375.8125 46.71875 379.476563 46.183594 383.519531 46.222656 L 398.300781 46.222656 L 384.226563 65.050781 C 383.78125 63.800781 382.835938 62.957031 381.4375 62.496094 C 380.074219 62.015625 377.695313 61.785156 374.375 61.785156 L 368.382813 61.785156 C 365.222656 61.785156 362.210938 62.53125 359.382813 64.011719 C 356.558594 65.492188 354.15625 67.566406 352.128906 70.277344 L 338.253906 88.835938 C 335.039063 93.140625 332.925781 96.15625 331.964844 97.847656 C 330.992188 99.558594 330.34375 101.285156 330.058594 103.054688 L 295.914063 103.054688 C 298.269531 101.285156 300.210938 99.558594 301.792969 97.847656 C 303.359375 96.15625 305.757813 93.140625 308.972656 88.835938 L 330.128906 60.535156 C 333.363281 56.210938 335.476563 53.195313 336.464844 51.464844 C 337.453125 49.738281 338.113281 47.988281 338.402344 46.222656 Z M 443.128906 69.007813 L 445.464844 92.292969 C 445.804688 95.984375 446.144531 98.402344 446.449219 99.59375 C 446.785156 100.765625 447.402344 101.917969 448.335938 103.054688 L 406.21875 103.054688 C 407.121094 101.441406 407.664063 100.171875 407.902344 99.230469 C 408.117188 98.289063 408.132813 97.078125 407.929688 95.617188 L 406.800781 87.511719 L 386.15625 97.980469 C 382.734375 99.710938 380.175781 101.402344 378.453125 103.054688 L 357.152344 103.054688 C 360.804688 101.554688 363.878906 100.230469 366.355469 99.058594 C 368.832031 97.886719 372.765625 95.925781 378.210938 93.140625 L 405.796875 79.019531 L 403.824219 58.632813 C 403.234375 53.464844 402.496094 49.332031 401.664063 46.222656 L 442.546875 46.222656 C 441.328125 48.585938 441.019531 51.082031 441.59375 53.753906 L 442.292969 60.265625 L 478.738281 40.378906 C 485.210938 36.847656 489.464844 34.535156 491.253906 32.847656 L 511.585938 32.847656 C 509.394531 33.824219 506.941406 35 504.203125 36.382813 C 501.085938 37.957031 497.605469 39.570313 493.941406 41.550781 Z M 443.128906 69.007813 "/>
<path style=" stroke:none;fill-rule:evenodd;fill:rgb(100%,100%,100%);fill-opacity:1;" d="M 325.476563 113.65625 L 323.609375 116.886719 C 323.347656 116.660156 323.078125 116.519531 322.808594 116.464844 C 322.539063 116.410156 321.964844 116.386719 321.09375 116.386719 L 314.335938 116.386719 C 313.601563 116.386719 313.027344 116.507813 312.621094 116.75 C 312.207031 116.996094 311.691406 117.523438 311.070313 118.335938 L 305.5625 125.554688 C 305.015625 126.269531 304.726563 126.75 304.695313 126.992188 C 304.707031 127.332031 305.097656 127.496094 305.863281 127.488281 L 307.777344 127.488281 C 308.335938 127.488281 308.792969 127.378906 309.136719 127.167969 C 309.484375 126.953125 309.90625 126.515625 310.417969 125.84375 L 312.59375 122.992188 L 310.921875 122.992188 C 310.425781 122.992188 310.019531 123.019531 309.707031 123.066406 C 309.394531 123.113281 308.996094 123.214844 308.515625 123.367188 L 310.808594 120.359375 L 322.054688 120.359375 C 321.171875 120.910156 320.304688 121.726563 319.441406 122.8125 L 315.660156 127.765625 C 314.867188 128.851563 314.488281 129.667969 314.53125 130.21875 L 308.648438 130.21875 C 308.867188 129.757813 309.214844 129.160156 309.6875 128.421875 C 309.097656 129.136719 308.492188 129.613281 307.882813 129.855469 C 307.269531 130.101563 306.363281 130.21875 305.15625 130.21875 L 299.972656 130.21875 C 298.964844 130.21875 298.25 130.160156 297.824219 130.046875 C 297.40625 129.925781 297.121094 129.714844 296.984375 129.410156 C 296.707031 128.824219 297 127.953125 297.863281 126.789063 L 305.257813 117.09375 C 306.175781 115.925781 307.21875 115.054688 308.382813 114.46875 C 309.007813 114.152344 309.613281 113.941406 310.207031 113.824219 C 310.800781 113.714844 311.605469 113.65625 312.613281 113.65625 Z M 333.316406 113.65625 L 343.675781 113.65625 C 344.359375 113.65625 344.933594 113.773438 345.390625 114.019531 C 345.847656 114.265625 346.109375 114.59375 346.1875 115.007813 C 346.347656 115.664063 345.816406 116.792969 344.597656 118.402344 L 339.203125 125.472656 C 337.964844 127.082031 336.765625 128.214844 335.609375 128.871094 C 334.902344 129.285156 334.136719 129.613281 333.308594 129.855469 C 332.476563 130.101563 331.71875 130.21875 331.035156 130.21875 L 320.675781 130.21875 C 319.988281 130.21875 319.417969 130.101563 318.957031 129.855469 C 318.503906 129.613281 318.238281 129.285156 318.160156 128.871094 C 318 128.214844 318.53125 127.082031 319.753906 125.472656 L 325.148438 118.402344 C 326.382813 116.792969 327.582031 115.664063 328.738281 115.007813 C 329.445313 114.59375 330.214844 114.265625 331.042969 114.019531 C 331.875 113.773438 332.632813 113.65625 333.316406 113.65625 Z M 331.964844 118.328125 L 326.457031 125.546875 C 325.90625 126.265625 325.613281 126.746094 325.574219 126.992188 C 325.589844 127.332031 325.972656 127.496094 326.742188 127.488281 L 329.136719 127.488281 C 329.871094 127.488281 330.441406 127.367188 330.847656 127.125 C 331.257813 126.878906 331.769531 126.355469 332.386719 125.546875 L 337.894531 118.328125 C 338.445313 117.609375 338.734375 117.128906 338.773438 116.882813 C 338.761719 116.542969 338.375 116.378906 337.609375 116.386719 L 334.964844 116.386719 C 334.363281 116.386719 333.855469 116.519531 333.453125 116.78125 C 333.046875 117.046875 332.550781 117.558594 331.964844 118.328125 Z M 362.367188 116.386719 L 359.316406 120.386719 L 365.257813 120.386719 C 366.054688 120.394531 366.917969 120.257813 367.863281 119.972656 L 365.082031 123.613281 C 364.773438 123.410156 364.457031 123.277344 364.132813 123.210938 C 363.808594 123.148438 363.289063 123.117188 362.585938 123.117188 L 357.234375 123.117188 L 353.6875 127.761719 C 352.894531 128.851563 352.519531 129.667969 352.554688 130.21875 L 344.308594 130.21875 C 345.210938 129.644531 346.082031 128.824219 346.929688 127.761719 L 355.820313 116.109375 C 356.597656 115.046875 356.972656 114.230469 356.949219 113.65625 L 372.554688 113.65625 L 370.710938 116.789063 C 370.335938 116.601563 370.003906 116.492188 369.703125 116.460938 C 369.40625 116.429688 368.597656 116.402344 367.289063 116.386719 Z M 379.308594 113.65625 L 389.667969 113.65625 C 390.351563 113.65625 390.925781 113.773438 391.382813 114.019531 C 391.839844 114.265625 392.105469 114.59375 392.179688 115.007813 C 392.339844 115.664063 391.8125 116.792969 390.589844 118.402344 L 385.195313 125.472656 C 383.957031 127.082031 382.757813 128.214844 381.601563 128.871094 C 380.894531 129.285156 380.128906 129.613281 379.300781 129.855469 C 378.46875 130.101563 377.710938 130.21875 377.027344 130.21875 L 366.667969 130.21875 C 365.984375 130.21875 365.410156 130.101563 364.953125 129.855469 C 364.496094 129.613281 364.230469 129.285156 364.152344 128.871094 C 363.992188 128.214844 364.523438 127.082031 365.746094 125.472656 L 371.140625 118.402344 C 372.378906 116.792969 373.574219 115.664063 374.730469 115.007813 C 375.441406 114.59375 376.207031 114.265625 377.035156 114.019531 C 377.867188 113.773438 378.625 113.65625 379.308594 113.65625 Z M 377.957031 118.328125 L 372.449219 125.546875 C 371.898438 126.265625 371.609375 126.746094 371.566406 126.992188 C 371.582031 127.332031 371.96875 127.496094 372.734375 127.488281 L 375.128906 127.488281 C 375.863281 127.488281 376.433594 127.367188 376.84375 127.125 C 377.25 126.878906 377.761719 126.355469 378.378906 125.546875 L 383.886719 118.328125 C 384.4375 117.609375 384.726563 117.128906 384.769531 116.882813 C 384.753906 116.542969 384.371094 116.378906 383.601563 116.386719 L 380.957031 116.386719 C 380.355469 116.386719 379.847656 116.519531 379.445313 116.78125 C 379.039063 117.046875 378.542969 117.558594 377.957031 118.328125 Z M 398.597656 123.167969 L 396.507813 123.167969 L 392.992188 127.773438 C 392.210938 128.84375 391.835938 129.660156 391.867188 130.21875 L 383.621094 130.21875 C 384.523438 129.644531 385.390625 128.828125 386.230469 127.773438 L 395.132813 116.109375 C 395.910156 115.046875 396.285156 114.230469 396.261719 113.65625 L 410.910156 113.65625 C 411.921875 113.65625 412.640625 113.714844 413.070313 113.824219 C 413.5 113.9375 413.777344 114.152344 413.910156 114.46875 C 414.191406 115.050781 413.894531 115.925781 413.035156 117.089844 L 410.304688 120.667969 C 409.730469 121.421875 409.210938 121.964844 408.742188 122.304688 C 407.914063 122.898438 407.074219 123.191406 406.222656 123.191406 C 406.109375 123.191406 405.957031 123.183594 405.769531 123.167969 L 404.554688 127.964844 C 404.320313 128.828125 404.203125 129.582031 404.203125 130.21875 L 396.363281 130.21875 Z M 398.59375 120.433594 L 402.378906 120.433594 C 402.960938 120.433594 403.410156 120.34375 403.71875 120.164063 C 404.027344 119.988281 404.417969 119.59375 404.882813 118.988281 L 405.507813 118.164063 C 406.136719 117.34375 406.433594 116.84375 406.40625 116.660156 C 406.382813 116.476563 406.007813 116.386719 405.285156 116.386719 L 401.679688 116.386719 Z M 420.007813 130.21875 L 411.761719 130.21875 C 412.664063 129.644531 413.53125 128.828125 414.375 127.769531 L 423.265625 116.117188 C 424.042969 115.054688 424.425781 114.230469 424.402344 113.65625 L 432.648438 113.65625 C 431.765625 114.207031 430.894531 115.027344 430.027344 116.117188 L 421.136719 127.769531 C 420.34375 128.855469 419.964844 129.667969 420.007813 130.21875 Z M 425.707031 130.21875 C 426.59375 129.667969 427.460938 128.855469 428.320313 127.769531 L 437.007813 116.386719 L 433.863281 116.386719 C 433.226563 116.386719 432.734375 116.421875 432.382813 116.480469 C 432.027344 116.546875 431.605469 116.679688 431.113281 116.882813 L 434.109375 113.65625 L 450.835938 113.65625 L 448.90625 116.882813 C 448.722656 116.679688 448.503906 116.546875 448.246094 116.480469 C 447.992188 116.421875 447.550781 116.386719 446.914063 116.386719 L 443.769531 116.386719 L 435.082031 127.769531 C 434.289063 128.855469 433.914063 129.667969 433.957031 130.21875 Z M 425.707031 130.21875 "/>
</g>
</svg>

<svg xmlns="http://www.w3.org/2000/svg" width="546.5pt" height="161.5pt" viewBox="0 0 546.5 161.5"><defs><clipPath id="a"><path d="M0 18h546.5v125H0Zm0 0"/></clipPath></defs><path style="stroke:none;fill-rule:evenodd;fill:#e63e0d;fill-opacity:1" d="M.086 161.496h546.5V-.004H.086Zm0 0"/><g clip-path="url(#a)"><path style="stroke:none;fill-rule:evenodd;fill:#000200;fill-opacity:1" d="M.086 142.496h546.5v-123.5H.086Zm0 0"/></g><path style="stroke:none;fill-rule:evenodd;fill:#fff;fill-opacity:1" d="m147.223 46.223-7.809 14.234c-1.008-1.496-2.246-2.437-3.68-2.883-1.445-.422-4.261-.633-8.433-.633h-24.887c-2.441.04-3.89.137-4.309.29-1.062.363-2.027 1.113-2.859 2.226-.805 1.078-.992 1.79-.582 2.133.395.367 1.621.539 3.629.539h22.98c12.47-.555 14.45 4.726 5.934 15.851l-6.078 8.125c-4.496 6.016-9.961 10.512-16.434 13.508-2.965 1.364-5.644 2.27-8.074 2.73-2.465.481-5.738.712-9.848.712H35.602l8.214-14.567c2.243 1.77 4.09 2.844 5.57 3.25 1.481.403 4.294.594 8.446.594H83.43c2.086 0 3.66-.21 4.738-.652 1.047-.422 2.043-1.27 2.977-2.516.933-1.25 1.23-2.059.906-2.46-.305-.403-1.418-.599-3.32-.599H62.788c-3.2 0-5.453-.285-6.73-.882-1.29-.575-2.024-1.653-2.223-3.227-.461-2.422 1.086-6.031 4.598-10.836l6.75-9.031c3.289-4.399 7.351-7.992 12.195-10.758 3.512-2.02 6.941-3.383 10.246-4.094 3.324-.71 7.898-1.054 13.73-1.054Zm-44.274 76.773 46.766-62.558c3.219-4.301 5.332-7.32 6.289-9.008.976-1.711 1.621-3.442 1.91-5.207h27.984l-2.492 5.148c2.883-2.094 5.375-3.476 7.535-4.152 2.145-.672 5.063-.996 8.746-.996h20.84c4.352 0 7.371.46 9.055 1.402 1.688.941 2.461 2.613 2.34 4.992-.04 1.059-.54 2.594-1.508 4.594a31.93 31.93 0 0 1-3.285 5.477l-18.453 24.687c-3.637 4.863-7.906 8.703-12.805 11.488-4.875 2.79-9.793 4.192-14.691 4.192h-24.04c-4.84 0-6.859-1.77-6.05-5.285l-8.203 10.972c-3.246 4.34-5.36 7.356-6.332 9.067-.961 1.691-1.586 3.421-1.895 5.187Zm59.473-30.664h6.664c2.57 0 4.7-.52 6.387-1.555 1.672-1.02 3.632-3.02 5.816-5.937l15.797-21.137c1.41-1.883 2.226-3.055 2.476-3.55.239-.481.344-1.06.25-1.692-.101-.598-.425-1-.957-1.211-.55-.21-1.53-.309-2.968-.309h-8.082c-2.145 0-4.114.52-5.88 1.559-1.753 1.016-3.476 2.668-5.155 4.918l-17.063 22.824c-1.668 2.227-2.285 3.785-1.879 4.707.402.922 1.922 1.383 4.594 1.383Zm90.605-46.11h54.575c4.109 0 6.945.266 8.488.805 1.547.559 2.668 1.633 3.336 3.285 1.238 3.25.023 7.282-3.664 12.106l-19.735 26.398c-3.23 4.325-5.328 7.32-6.304 9.032-.973 1.71-1.618 3.437-1.907 5.207h-29.101c.281-1.54 1.187-3.535 2.715-6.016-2.18 2.074-4.493 3.574-6.97 4.555-2.472.98-5.241 1.46-8.339 1.46h-21.89c-3.665 0-6.31-.23-7.903-.671-1.598-.465-2.742-1.29-3.43-2.48-.66-1.286-.632-2.923.09-4.919.739-2.02 2.223-4.515 4.477-7.53l7.238-9.684c3.176-4.247 6.883-7.473 11.176-9.723 4.293-2.246 8.91-3.383 13.848-3.383h27.886c2.559-.035 4.301-.172 5.227-.383 1.793-.5 3.418-1.73 4.898-3.707 1.051-1.402 1.32-2.363.82-2.883-.519-.5-2.011-.75-4.503-.75h-28.493c-4.843-.078-9.71.829-14.566 2.692Zm23.758 29.165h-14.133c-2.613 0-4.8.52-6.57 1.554-1.77 1.04-3.676 2.942-5.746 5.707l-1.852 2.48c-2.039 2.727-2.96 4.61-2.742 5.65.215 1.034 1.63 1.554 4.242 1.554h7.188c2.652 0 4.863-.52 6.633-1.555 1.765-1.039 3.66-2.922 5.699-5.648Zm90.594-29.164-6.227 9.355c2.41-2.25 4.391-3.922 5.977-5.016 1.59-1.093 3.398-1.996 5.387-2.707 3.296-1.136 6.96-1.671 11.004-1.632h14.78L384.228 65.05c-.446-1.25-1.391-2.094-2.79-2.555-1.363-.48-3.742-.71-7.062-.71h-5.992c-3.16 0-6.172.745-9 2.226-2.824 1.48-5.227 3.554-7.254 6.265l-13.875 18.559c-3.215 4.305-5.328 7.32-6.29 9.012-.972 1.71-1.62 3.437-1.905 5.207h-34.145c2.356-1.77 4.297-3.496 5.879-5.207 1.566-1.692 3.965-4.707 7.18-9.012l21.156-28.3c3.234-4.325 5.348-7.34 6.336-9.071.988-1.727 1.648-3.477 1.937-5.242Zm75.75 22.785 2.336 23.285c.34 3.691.68 6.11.984 7.3.336 1.173.953 2.325 1.887 3.462h-42.117c.902-1.614 1.445-2.883 1.683-3.825.215-.94.23-2.152.028-3.613l-1.13-8.105-20.644 10.468c-3.422 1.73-5.98 3.422-7.703 5.075h-21.3c3.652-1.5 6.726-2.825 9.202-3.996 2.477-1.172 6.41-3.133 11.856-5.918l27.586-14.121-1.973-20.387c-.59-5.168-1.328-9.301-2.16-12.41h40.883c-1.219 2.363-1.527 4.859-.953 7.53l.699 6.513 36.445-19.887c6.473-3.531 10.727-5.844 12.516-7.531h20.332a170.884 170.884 0 0 0-7.383 3.535c-3.117 1.574-6.598 3.187-10.262 5.168ZM325.477 113.656l-1.868 3.23c-.261-.226-.53-.366-.8-.421-.27-.055-.844-.078-1.715-.078h-6.758c-.734 0-1.309.12-1.715.363-.414.246-.93.773-1.55 1.586l-5.509 7.219c-.546.715-.835 1.195-.867 1.437.012.34.403.504 1.168.496h1.914c.559 0 1.016-.11 1.36-.32.347-.215.77-.652 1.281-1.324l2.176-2.852h-1.672c-.496 0-.902.028-1.215.074-.312.047-.71.149-1.191.301l2.293-3.008h11.246c-.883.551-1.75 1.368-2.614 2.454l-3.78 4.953c-.794 1.086-1.173 1.902-1.13 2.453h-5.883c.22-.461.567-1.059 1.04-1.797-.59.715-1.196 1.191-1.805 1.433-.613.247-1.52.364-2.727.364h-5.183c-1.008 0-1.723-.059-2.149-.172-.418-.121-.703-.332-.84-.637-.277-.586.016-1.457.88-2.62l7.394-9.696c.918-1.168 1.96-2.04 3.125-2.625a7.056 7.056 0 0 1 1.824-.645c.594-.11 1.398-.168 2.406-.168Zm7.84 0h10.359c.683 0 1.258.117 1.715.364.457.246.718.574.796.988.16.656-.37 1.785-1.59 3.394l-5.394 7.07c-1.238 1.61-2.437 2.743-3.594 3.4-.707.413-1.472.741-2.3.983-.832.247-1.59.364-2.274.364h-10.36c-.687 0-1.257-.117-1.718-.364-.453-.242-.719-.57-.797-.984-.16-.656.371-1.789 1.594-3.398l5.394-7.07c1.235-1.61 2.434-2.739 3.59-3.395a10.408 10.408 0 0 1 2.305-.988c.832-.247 1.59-.364 2.273-.364Zm-1.352 4.672-5.508 7.219c-.55.719-.844 1.2-.883 1.445.016.34.399.504 1.168.496h2.395c.734 0 1.304-.12 1.71-.363.41-.246.923-.77 1.54-1.578l5.508-7.219c.55-.719.84-1.2.878-1.445-.011-.34-.398-.504-1.164-.496h-2.644c-.602 0-1.11.133-1.512.394-.406.266-.902.778-1.488 1.547Zm30.402-1.941-3.05 4h5.94c.798.008 1.661-.13 2.606-.414l-2.781 3.64a2.707 2.707 0 0 0-.95-.402c-.323-.063-.843-.094-1.546-.094h-5.352l-3.546 4.645c-.793 1.09-1.168 1.906-1.133 2.457h-8.246c.902-.574 1.773-1.395 2.62-2.457l8.891-11.653c.778-1.062 1.153-1.879 1.13-2.453h15.605l-1.844 3.133c-.375-.187-.707-.297-1.008-.328-.297-.031-1.105-.059-2.414-.074Zm16.942-2.73h10.359c.684 0 1.258.116 1.715.363.457.246.722.574.797.988.16.656-.368 1.785-1.59 3.394l-5.395 7.07c-1.238 1.61-2.437 2.743-3.593 3.4-.707.413-1.473.741-2.301.983-.832.247-1.59.364-2.274.364h-10.359c-.684 0-1.258-.117-1.715-.364-.457-.242-.723-.57-.8-.984-.16-.656.37-1.789 1.593-3.398l5.395-7.07c1.238-1.61 2.433-2.739 3.59-3.395.71-.414 1.476-.742 2.304-.988.832-.247 1.59-.364 2.274-.364Zm-1.352 4.671-5.508 7.219c-.55.719-.84 1.2-.883 1.445.016.34.403.504 1.168.496h2.395c.734 0 1.305-.12 1.715-.363.406-.246.918-.77 1.535-1.578l5.508-7.219c.55-.719.84-1.2.883-1.445-.016-.34-.399-.504-1.168-.496h-2.645c-.602 0-1.11.133-1.512.394-.406.266-.902.778-1.488 1.547Zm20.64 4.84h-2.09l-3.515 4.605c-.781 1.07-1.156 1.887-1.125 2.446h-8.246c.902-.574 1.77-1.39 2.61-2.446l8.902-11.664c.777-1.062 1.152-1.879 1.129-2.453h14.648c1.012 0 1.73.059 2.16.168.43.114.707.328.84.645.281.582-.015 1.457-.875 2.62l-2.73 3.579c-.575.754-1.094 1.297-1.563 1.637-.828.593-1.668.886-2.52.886-.113 0-.265-.007-.452-.023l-1.215 4.797c-.235.863-.352 1.617-.352 2.254h-7.84Zm-.003-2.734h3.785c.582 0 1.031-.09 1.34-.27.308-.176.699-.57 1.164-1.176l.625-.824c.629-.82.926-1.32.898-1.504-.023-.183-.398-.273-1.12-.273h-3.606Zm21.414 9.785h-8.246c.902-.574 1.77-1.39 2.613-2.45l8.89-11.652c.778-1.062 1.16-1.887 1.137-2.46h8.246c-.882.55-1.753 1.37-2.62 2.46l-8.891 11.653c-.793 1.085-1.172 1.898-1.13 2.449Zm5.699 0c.887-.551 1.754-1.364 2.613-2.45l8.688-11.382h-3.145c-.636 0-1.129.035-1.48.093-.356.067-.778.2-1.27.403l2.996-3.227h16.727l-1.93 3.227a1.311 1.311 0 0 0-.66-.403c-.254-.058-.695-.093-1.332-.093h-3.144l-8.688 11.383c-.793 1.085-1.168 1.898-1.125 2.449Zm0 0"/></svg>
